Dominus_Dark_Funeral/scalable/apps/emacs.svg

<svg xmlns="http://www.w3.org/2000/svg" xmlns:xlink="http://www.w3.org/1999/xlink" width="48" height="48" viewBox="0 0 12.7 12.7"><defs><linearGradient id="b"><stop offset="0" stop-color="#8d5fd3"/><stop offset="1" stop-color="#c6afe9"/></linearGradient><linearGradient id="a"><stop offset="0" stop-color="#040000"/><stop offset="1" stop-color="#060000" stop-opacity="0"/></linearGradient><linearGradient xlink:href="#a" id="e" gradientUnits="userSpaceOnUse" x1="3" y1="286.45" x2="13.98" y2="291.43" gradientTransform="translate(0 -284.3)"/><linearGradient xlink:href="#b" id="d" x1="1.88" y1=".42" x2="11.69" y2="6.35" gradientUnits="userSpaceOnUse"/><linearGradient xlink:href="#b" id="c" gradientUnits="userSpaceOnUse" gradientTransform="translate(15.88)" x1="1.88" y1=".42" x2="11.69" y2="6.35"/></defs><path d="M6.35.1C4.81.1 3.57.38 2.66.96A3.67 3.67 0 0 0 1 4.22c0 1.91 1.54 4.47 2.01 5.2.54.85 1.13 1.61 1.65 2.16.68.7 1.21 1.03 1.69 1.03s1.01-.33 1.69-1.03a15.2 15.2 0 0 0 1.65-2.15c.47-.74 2-3.3 2-5.21 0-1.42-.57-2.54-1.65-3.25A6.75 6.75 0 0 0 6.35.1z" fill="url(#d)"/><path d="M7.79 11.8c.08-.09.16-.12.25-.22a15.2 15.2 0 0 0 1.65-2.15c.23-.37.74-1.2 1.18-2.17.22-.48.43-1 .58-1.52.15-.52.25-1.04.25-1.52l-.02-.1-2.27-2.25-.7.62-3.33-.17-.62.7 2.19 2.01-2.44-.02-1.82 1.64z" opacity=".75" fill="url(#e)"/><path d="M8.43 1.62a2 2 0 0 0-.67.11c.23-.01.72.09.73.27 0 .21-.25.21-.62.2-1.17-.07-2.91-.53-3.41-.26a.56.56 0 0 0-.3.5c0 .27.25.7.66 1.12a8 8 0 0 0 1.32 1.05c.3.17.3.19.06.13a4.95 4.95 0 0 0-3.2.25c-.45.22-.7.6-.66.96.04.27.18.5.47.78.24.25.47.4.92.67.62.36 1.5.65 2.45.85.12.02 2.07.4 2.72-.05.4-.28.44-.91-.18-1.23.07.59-.32.7-1.1.65a8.24 8.24 0 0 1-2.12-.46C4.8 6.92 4.06 6.45 4.2 6c.38-.98 3.18-.69 3.7-.73-.63-.47-2.66-1.81-2.08-2.5.25-.28.98-.16 1.82 0 .77.13 1.92.56 1.95-.4a.7.7 0 0 0-.4-.64c-.12-.05-.22-.12-.76-.11z" fill="#ccc"/><path d="M1.04 3.9c0 .1-.04.2-.04.32 0 1.91 1.54 4.47 2.01 5.2.54.85 1.13 1.61 1.65 2.16.68.7 1.21 1.03 1.69 1.03s1.01-.33 1.69-1.03a15.2 15.2 0 0 0 1.65-2.15c.47-.74 2-3.3 2-5.21 0-.11-.02-.21-.03-.32a5.5 5.5 0 0 1-.21 1.3c-.15.53-.36 1.05-.58 1.53-.44.97-.95 1.8-1.18 2.17a15.2 15.2 0 0 1-1.65 2.15 4.9 4.9 0 0 1-.92.78c-.28.17-.53.25-.77.25s-.5-.08-.77-.25a4.76 4.76 0 0 1-.92-.78A14.41 14.41 0 0 1 3.01 8.9a19.2 19.2 0 0 1-1.18-2.17c-.22-.48-.43-1-.58-1.52a5.66 5.66 0 0 1-.21-1.31z" opacity=".5"/></svg>

<?xml version="1.0" encoding="UTF-8" standalone="no"?>
<svg
   xmlns:dc="http://purl.org/dc/elements/1.1/"
   xmlns:cc="http://creativecommons.org/ns#"
   xmlns:rdf="http://www.w3.org/1999/02/22-rdf-syntax-ns#"
   xmlns:svg="http://www.w3.org/2000/svg"
   xmlns="http://www.w3.org/2000/svg"
   xmlns:xlink="http://www.w3.org/1999/xlink"
   xmlns:sodipodi="http://sodipodi.sourceforge.net/DTD/sodipodi-0.dtd"
   xmlns:inkscape="http://www.inkscape.org/namespaces/inkscape"
   width="48"
   height="48"
   viewBox="0 0 12.7 12.7"
   version="1.1"
   id="svg25"
   sodipodi:docname="emacs.svg"
   inkscape:version="0.92.4 (5da689c313, 2019-01-14)">
  <metadata
     id="metadata29">
    <rdf:RDF>
      <cc:Work
         rdf:about="">
        <dc:format>image/svg+xml</dc:format>
        <dc:type
           rdf:resource="http://purl.org/dc/dcmitype/StillImage" />
        <dc:title></dc:title>
      </cc:Work>
    </rdf:RDF>
  </metadata>
  <sodipodi:namedview
     pagecolor="#ffffff"
     bordercolor="#666666"
     borderopacity="1"
     objecttolerance="10"
     gridtolerance="10"
     guidetolerance="10"
     inkscape:pageopacity="0"
     inkscape:pageshadow="2"
     inkscape:window-width="1112"
     inkscape:window-height="480"
     id="namedview27"
     showgrid="false"
     inkscape:zoom="4.9166667"
     inkscape:cx="2.1355932"
     inkscape:cy="24"
     inkscape:window-x="0"
     inkscape:window-y="25"
     inkscape:window-maximized="0"
     inkscape:current-layer="svg25" />
  <defs
     id="defs15">
    <linearGradient
       id="b">
      <stop
         offset="0"
         stop-color="#8d5fd3"
         id="stop2" />
      <stop
         offset="1"
         stop-color="#c6afe9"
         id="stop4" />
    </linearGradient>
    <linearGradient
       id="a">
      <stop
         offset="0"
         stop-color="#040000"
         id="stop7" />
      <stop
         offset="1"
         stop-color="#060000"
         stop-opacity="0"
         id="stop9" />
    </linearGradient>
    <linearGradient
       xlink:href="#a"
       id="e"
       gradientUnits="userSpaceOnUse"
       x1="3"
       y1="286.45"
       x2="13.98"
       y2="291.43"
       gradientTransform="translate(0,-284.3)" />
    <linearGradient
       xlink:href="#b"
       id="d"
       x1="1.88"
       y1=".42"
       x2="11.69"
       y2="6.35"
       gradientUnits="userSpaceOnUse" />
    <linearGradient
       xlink:href="#b"
       id="c"
       gradientUnits="userSpaceOnUse"
       gradientTransform="translate(15.88)"
       x1="1.88"
       y1=".42"
       x2="11.69"
       y2="6.35" />
  </defs>
  <path
     d="M 6.35,0.1 C 4.81,0.1 3.57,0.38 2.66,0.96 A 3.67,3.67 0 0 0 1,4.22 c 0,1.91 1.54,4.47 2.01,5.2 0.54,0.85 1.13,1.61 1.65,2.16 0.68,0.7 1.21,1.03 1.69,1.03 0.48,0 1.01,-0.33 1.69,-1.03 A 15.2,15.2 0 0 0 9.69,9.43 c 0.47,-0.74 2,-3.3 2,-5.21 0,-1.42 -0.57,-2.54 -1.65,-3.25 A 6.75,6.75 0 0 0 6.35,0.1 Z"
     id="path17"
     style="fill:url(#d)"
     inkscape:connector-curvature="0" />
  <path
     d="M 7.79,11.8 C 7.87,11.71 7.95,11.68 8.04,11.58 A 15.2,15.2 0 0 0 9.69,9.43 C 9.92,9.06 10.43,8.23 10.87,7.26 11.09,6.78 11.3,6.26 11.45,5.74 11.6,5.22 11.7,4.7 11.7,4.22 L 11.68,4.12 9.41,1.87 8.71,2.49 5.38,2.32 4.76,3.02 6.95,5.03 4.51,5.01 2.69,6.65 Z"
     id="path19"
     style="opacity:0.75;fill:url(#e)"
     inkscape:connector-curvature="0" />
  <path
     d="M 8.43,1.62 A 2,2 0 0 0 7.76,1.73 C 7.99,1.72 8.48,1.82 8.49,2 8.49,2.21 8.24,2.21 7.87,2.2 6.7,2.13 4.96,1.67 4.46,1.94 a 0.56,0.56 0 0 0 -0.3,0.5 c 0,0.27 0.25,0.7 0.66,1.12 A 8,8 0 0 0 6.14,4.61 C 6.44,4.78 6.44,4.8 6.2,4.74 A 4.95,4.95 0 0 0 3,4.99 C 2.55,5.21 2.3,5.59 2.34,5.95 2.38,6.22 2.52,6.45 2.81,6.73 3.05,6.98 3.28,7.13 3.73,7.4 4.35,7.76 5.23,8.05 6.18,8.25 6.3,8.27 8.25,8.65 8.9,8.2 9.3,7.92 9.34,7.29 8.72,6.97 8.79,7.56 8.4,7.67 7.62,7.62 A 8.24,8.24 0 0 1 5.5,7.16 C 4.8,6.92 4.06,6.45 4.2,6 4.58,5.02 7.38,5.31 7.9,5.27 7.27,4.8 5.24,3.46 5.82,2.77 6.07,2.49 6.8,2.61 7.64,2.77 8.41,2.9 9.56,3.33 9.59,2.37 A 0.7,0.7 0 0 0 9.19,1.73 C 9.07,1.68 8.97,1.61 8.43,1.62 Z"
     id="path21"
     inkscape:connector-curvature="0"
     style="fill:#cccccc" />
  <path
     d="M 1.04,3.9 C 1.04,4 1,4.1 1,4.22 c 0,1.91 1.54,4.47 2.01,5.2 0.54,0.85 1.13,1.61 1.65,2.16 0.68,0.7 1.21,1.03 1.69,1.03 0.48,0 1.01,-0.33 1.69,-1.03 A 15.2,15.2 0 0 0 9.69,9.43 c 0.47,-0.74 2,-3.3 2,-5.21 0,-0.11 -0.02,-0.21 -0.03,-0.32 A 5.5,5.5 0 0 1 11.45,5.2 C 11.3,5.73 11.09,6.25 10.87,6.73 10.43,7.7 9.92,8.53 9.69,8.9 A 15.2,15.2 0 0 1 8.04,11.05 4.9,4.9 0 0 1 7.12,11.83 C 6.84,12 6.59,12.08 6.35,12.08 6.11,12.08 5.85,12 5.58,11.83 A 4.76,4.76 0 0 1 4.66,11.05 14.41,14.41 0 0 1 3.01,8.9 19.2,19.2 0 0 1 1.83,6.73 C 1.61,6.25 1.4,5.73 1.25,5.21 A 5.66,5.66 0 0 1 1.04,3.9 Z"
     id="path23"
     inkscape:connector-curvature="0"
     style="opacity:0.5" />
</svg>
